X:1
T:Title
%%score { ( 1 3 ) | ( 2 4 ) }
L:1/8
M:4/4
K:Ab
V:1 treble nm="Grand Piano"
V:3 treble 
V:2 bass 
V:4 bass 
V:1
 z4 z2 z[Q:1/4=94] E | EEA[GB] c2 cc | [FB][FA][EG][DF] [CE]3 [B,D] | %3
 [A,C][CE][EA][Ec] [=DB][DF][DG][DA] | B6- BE | EEA[GB] [Ac]2 [Ac]2 | [FB][FA][EG][DF] [CE]4 | %7
[M:17/16] z/ z/ z/ z/ z/ z/ z e/-e-<e z/ z/ z |[M:4/4] B4 [CA]4 | c>c BA c2 c2 | %10
 [FB][FA][EG][DF] [CE]4 | c>c BA c2 [=DF][Dc] | [EB]4 [Ge]3 [Gd] | c>c BA c2 c2 | %14
 [FB][FA][EG][DF] [CE]4 |[M:17/16] z/ z/ z/ z/ z/ z/ z e/-e-<e z/ z/ z |[M:7/8] B- B3 [CA]3 |] %17
V:2
 z4 z2 z [A,C] | [A,C][A,C][A,CE][E,E][K:treble] [A,EA]2 [A,EA][A,EA] | %2
 [D,D][D,D][D,A,][D,A,] [A,,A,]3 [E,G,] | %3
 [A,,E,][A,,A,][C,A,][A,,A,] [B,,F,][B,,B,][B,,B,][B,,B,] | [E,G,D]6- [E,G,D][E,D] | %5
 [A,C][A,C][A,CE][E,E] [A,E]2 [A,E]2 | [D,D][D,D][D,A,][D,A,] [A,,A,]4 | %7
[M:17/16] z/ z/ z/ z/ z/ z/ z .E3/2 z/ z/ z/ z/ z |[M:4/4] [E,G,D]4 [A,,A,]4 | %9
 [A,EA]>[A,EA] [A,DA][A,C] [A,EA]2 [A,E_G]2 | [D,D][D,D][D,D][D,A,] [A,,A,]4 | %11
 [A,E]>[A,E] [A,D][A,C] [F,A,=D]2 [B,,A,][B,,A,] | [E,G,]4 [E,B,]3 [E,E] | %13
 [A,EA]>[A,EA] [A,DA][A,C] [A,EA]2 [A,E_G]2 | [D,D][D,D][D,D][D,A,] [A,,A,]4 | %15
[M:17/16] z/ z/ z/ z/ z/ z/ z .E3/2 z/ z/ z/ z/ z |[M:7/8] [E,G,D]- [E,G,D]3 [A,,A,]3 |] %17
V:3
 x8 | x8 | x8 | x8 | x8 | x8 | x8 |[M:17/16] AAAA z A3/2cA |[M:4/4] x8 | x8 | x8 | x8 | x8 | x8 | %14
 x8 |[M:17/16] AAAA z A3/2cA |[M:7/8] x7 |] %17
V:4
 x8 | x4[K:treble] x4 | x8 | x8 | x8 | x8 | x8 | %7
[M:17/16] [F,A,C][F,A,C][=E,_C=D][E,CD][_E,=C]/-[E,C]-<[E,C][E,A,E][E,A,C] |[M:4/4] x8 | x8 | x8 | %11
 x8 | x8 | x8 | x8 |[M:17/16] [F,A,C][F,A,C][=E,_C=D][E,CD][_E,=C]/-[E,C]-<[E,C][E,A,E][E,A,C] | %16
[M:7/8] x7 |] %17

